X: 41
T: Le monde est tel
N: Derived from Bus3037-Le_monde_est_tel.krn
C: Antoine Busnoys
%%abc-version 2.0
%%abcx-abcm2ps-target-version 5.9.1 (29 Sep 2008)
%%abc-creator hum2abc beta
%%abcx-conversion-date 2019/02/16 20:26:07
%%abc-edited-by Jesse Rodin
%%abc-edited-by Chris Gage 04-13-2015
%%abcx-initial-encoding-date 2015/05/05/
%%humdrum-veritas 1309882520
%%humdrum-veritas-data 3619772502
%%linebreak <none>
%%barnumbers 0
L: 1/4
M: 2/1
Q: 1/2=120
V: 1 clef=treble
V: 2 clef=treble
V: 3 clef=treble-8
K: C
[V:1] z8 | 
[V:2] z8 | 
[V:3] D8 | 
[V:1] z8 | 
[V:2] z8 | 
[V:3] F4F4 | 
[V:1] z8 | 
[V:2] D8 | 
[V:3] G6F2 | 
[V:1] z8 | 
[V:2] F4F4 | 
[V:3] D8 | 
[V:1] z8 | 
[V:2] G6F2 | 
[V:3] z4E4 | 
[V:1] z8 | 
[V:2] D8 | 
[V:3] F4G4 | 
[V:1] z8 | 
[V:2] z4E4 | 
[V:3] A2c3Bc2 | 
[V:1] z8 | 
[V:2] F4G4 | 
[V:3] dcBAB4 | 
[V:1] A8 | 
[V:2] A6F2- | 
[V:3] A4D4 | 
[V:1] c4c4 | 
[V:2] F2EDE4 | 
[V:3] A8 | 
[V:1] d6c2 | 
[V:2] D6F2- | 
[V:3] D8 | 
[V:1] A8 | 
[V:2] FEC2D3C | 
[V:3] z4D4 | 
[V:1] z4B4 | 
[V:2] A,4z4 | 
[V:3] F4G4 | 
[V:1] c4d4 | 
[V:2] A4F2G2- | 
[V:3] A4B4 | 
[V:1] e4d2f2 | 
[V:2] G2E2F2D2 | 
[V:3] c4d4 | 
[V:1] e2a4gf | 
[V:2] C2c4BA | 
[V:3] A4c2d2 | 
[V:1] gfed^c3B | 
[V:2] BAGFE4 | 
[V:3] G4A4 | 
[V:1] d8 | 
[V:2] D2F3ED2- | 
[V:3] F2D2F2G2 | 
[V:1] z8 | 
[V:2] D2^C2D2F2 | 
[V:3] E4D2A2- | 
[V:1] e8- | 
[V:2] E2A4G2 | 
[V:3] ABc3de2- | 
[V:1] e4e4 | 
[V:2] A2GFE4 | 
[V:3] edd4^c2 | 
[V:1] f6e2 | 
[V:2] D4z4 | 
[V:3] d2B3cd2 | 
[V:1] c8 | 
[V:2] E8- | 
[V:3] A2c4A2- | 
[V:1] c4c4 | 
[V:2] E8 | 
[V:3] A2GFE4 | 
[V:1] d6c2 | 
[V:2] F6ED | 
[V:3] D8 | 
[V:1] e4A2e2- | 
[V:2] C8- | 
[V:3] A8 | 
[V:1] efg4e2 | 
[V:2] C4C4 | 
[V:3] E8 | 
[V:1] f6e2 | 
[V:2] D6C2 | 
[V:3] D8 | 
[V:1] c8 | 
[V:2] E4A,2E2- | 
[V:3] C8 | 
[V:1] B4B4 | 
[V:2] EFG4E2 | 
[V:3] z8 | 
[V:1] A6G2 | 
[V:2] F6E2 | 
[V:3] z4D4 | 
[V:1] E8 | 
[V:2] C8 | 
[V:3] A8 | 
[V:1] F4G2A2- | 
[V:2] z8 | 
[V:3] D4E2F2- | 
[V:1] A2GFA2G2- | 
[V:2] z8 | 
[V:3] F2EDF2E2- | 
[V:1] GFEDE4 | 
[V:2] z8 | 
[V:3] ED^CB,^C4 | 
[V:1] D8 | 
[V:2] A8 | 
[V:3] D4F4- | 
[V:1] z8 | 
[V:2] G4G4 | 
[V:3] F2EDE4 | 
[V:1] A8 | 
[V:2] F8 | 
[V:3] F2D4F2- | 
[V:1] G4G4 | 
[V:2] _B8 | 
[V:3] F2E2E3D | 
[V:1] F4F4 | 
[V:2] A3_Bc2d2- | 
[V:3] F3GA2_B2- | 
[V:1] _B8 | 
[V:2] dc_BAG4 | 
[V:3] BAGFE3D | 
[V:1] A3FG2A2 | 
[V:2] A4_B2c2- | 
[V:3] F4z4 | 
[V:1] F2c2d2e2 | 
[V:2] c2A2_B2c2- | 
[V:3] z8 | 
[V:1] d2f4e2 | 
[V:2] c2A2G4 | 
[V:3] F4c4 | 
[V:1] f4g4 | 
[V:2] F2F4E2 | 
[V:3] A2_B2G4 | 
[V:1] a4g2e2- | 
[V:2] F2z2G4 | 
[V:3] F2A2_B2c2- | 
[V:1] e2f2g4 | 
[V:2] A4G2E2- | 
[V:3] c2d2e2c2- | 
[V:1] c4z4 | 
[V:2] E2F2G4 | 
[V:3] c2A2G4 | 
[V:1] e4f4 | 
[V:2] C4z4 | 
[V:3] z4D2F2 | 
[V:1] e2c4d2 | 
[V:2] E4F4 | 
[V:3] G2A4B2 | 
[V:1] e4A4 | 
[V:2] E2C4D2 | 
[V:3] c2A4F2 | 
[V:1] z4c4 | 
[V:2] E4A,4 | 
[V:3] E4z4 | 
[V:1] d2e4g2 | 
[V:2] z4C4 | 
[V:3] z4C2E2 | 
[V:1] f2e2g3f | 
[V:2] D2E4G2 | 
[V:3] D2C2E4 | 
[V:1] d2e4dc | 
[V:2] F2E2G3F | 
[V:3] z2E2E4 | 
[V:1] B2c4BA | 
[V:2] D2E4DC | 
[V:3] z2E2E4 | 
[V:1] ^G3^FA2c2 | 
[V:2] B,4A,2E2- | 
[V:3] z2E2F2A2 | 
[V:1] B2e3dcB | 
[V:2] EFG2A2E2- | 
[V:3] G2E2z2A2- | 
[V:1] c2A4^G2 | 
[V:2] ECD2B,4 | 
[V:3] A2D2E4 | 
[V:1] A8 |]  
[V:2] A,8 |]  
[V:3] A,8 |]  



